X:1
T:The Staff of Faith, 86.86.88.86
T:The Staff of Faith, 86.86.88.86
T:Traditional Swiss melody
T:Public Domain Courtesy of the Cyber Hymnal™
C:Traditional Swiss melody
Z:Public Domain
Z:Courtesy of the Cyber Hymnal™
%%score ( 1 2 ) ( 3 4 )
L:1/8
Q:1/4=110
M:4/4
K:Eb
V:1 treble 
V:2 treble 
V:3 bass 
V:4 bass 
V:1
 B,2 | [B,E]2 (EG) [DF]2 (FA) | (GB) (ec) [FB]2 [FA]2 | [EG]2 (AF) [B,E]2 [B,D]2 | [B,E]6 B,2 | %5
 [B,E]2 (EG) [DF]2 (FA) | (GB) (ec) [FB]2 [FA]2 | [EG]2 (AF) [B,E]2 [B,D]2 | [B,E]6 [EB]2 | %9
 [EB]3 [EG] (cB) (AG) | ([EG][DF]) [DF]2 [DF]2 [FB]2 | [GB]3 [EG] ([Ac][GB]) ([FA][EG]) | %12
 ([EG][DF]) [DF]2 [DF]2 B,2 | [B,E]2 (EG) [DF]2 FA | (GB) (ec) [FB]2 [FA]2 | %15
 [EG]2 (AF) [B,E]2 [B,D]2 | [B,E]6 |] %17
V:2
 B,2 | x2 B,2 x F2 x | E2 E2 x4 | x2 C2 x4 | x6 B,2 | x2 B,2 x F2 x | E2 E2 x4 | x2 C2 x4 | x8 | %9
 x4 E2 E2 | x8 | x8 | x6 B,2 | x2 B,2 x F2 x | E2 E2 x4 | x2 C2 x4 | x6 |] %17
V:3
 B,2 | [G,B,]2 [E,G,]2 [B,,B,]2 [D,B,]2 | [E,B,]2 [C,A,]2 [D,F,]2 [D,B,]2 | %3
 [E,B,]2 [A,,A,]2 [B,,G,]2 [B,,F,]2 | [E,G,]6 B,2 | [G,B,]2 [E,G,]2 [B,,B,]2 [D,B,]2 | %6
 [E,B,]2 [C,A,]2 [D,F,]2 [D,B,]2 | [E,B,]2 [A,,A,]2 [B,,G,]2 [B,,F,]2 | [E,G,]6 [E,G,]2 | %9
 [E,G,]3 [E,B,] (A,G,) (CB,) | [B,,B,]2 [B,,B,]2 [B,,B,]2 [D,B,]2 | [E,B,]3 [E,B,] [A,,C]2 C2 | %12
 [B,,B,]2 [B,,B,]2 [B,,B,]2 B,2 | [G,B,]2 [E,G,]2 [B,,B,]2 [D,B,]2 | %14
 [E,B,]2 [C,A,]2 [D,F,]2 [D,B,]2 | [E,B,]2 [A,,A,]2 [B,,G,]2 [B,,F,]2 | [E,G,]6 |] %17
V:4
 B,2 | x8 | x8 | x8 | x6 B,2 | x8 | x8 | x8 | x8 | x4 E,2 E,2 | x8 | x6 (A,,=A,,) | x6 B,2 | x8 | %14
 x8 | x8 | x6 |] %17

